!!!OTL: Die Wahl.
!!!OTL-incipit: ICH HABE MIR EINE ERWAEHLET
!!!ARE: Europa, Mitteleuropa, Deutschland, Niederrhein
!!!SCT: Z1171
!!!TXL: @@DE
!!!YEM: Copyright 1995, estate of Helmut Schaffrath.
**kern	**text
*ICvox	*
*M6/8	*
*k[b-]	*
*F:	*
!LO:TX:a:t=Vom Niederrhein.	!
{16aL	Jch
16b-J	.
=1	=1
8cc	ha-
8ff	-be
8dd	mir
8cc	ei-
8dd	-ne
8b-	er-
=2	=2
8a	-wählet,
8f	.
8r	.
4r}	.
{16fL	die
16gJ	.
=3	=3
8a	ſoll
8b-/	mir
8a	treu
8g	ei-
8a	.
8g	-gen
=4	=4
4f	ſeyn,
8r	.
4r}	.
{16aL	ſo
16b-J	.
=5	=5
8cc	hübſch
8f	und
8dd	ſo
4cc	fein,
16aL	ſo
16b-J	.
=6	=6
8cc	keuſch
8f	und
8dd	ſo
4cc}	rein,
{8c	drum
=7	=7
8f	will
8e	ich
8f	ſie
8g	lie-
8f	-ben
8g	al-
=8	=8
(<8.a/L	-lein!
16b-	.
16cc	.
16ddJ	.
4cc)}	.
{8cc	drum
=9	=9
8a	will
8b-/	ich
8a	ſie
8g	lie-
8a	-ben
8g	al-
=10	=10
4f	-lein!
8r	.
4r}	.
==	==
!!!AGN: Liebes - Lied, Abschieds - Lied
!!!ONB: ESAC (Essen Associative Code) Database: ZUCCAL
!!!AMT: compound duple
!!!AIN: vox
!!!EED: Helmut Schaffrath
!!!EEV: 1.0
!!!RDF**kern: <= below
!!!GTL: V. Lieder der Minne.
!!!URL-scan: https://www.digitale-sammlungen.de/de/view/bsb11160573?page=361
!!!ENC: Anna Maria Matuszewska
!!!EEV: 2025/02/05
*-	*-
